X: 43411
T: Y Cambro-Brython
R: polka
M: 2/4
K: Amajor
|:c>e df|ec BA|Aa ec|B2- BB|
ce df|ec BA|ce Bd|1 cA A2:|2 cA ce||
|:a2 ec|a2 ec|Aa ec|
[1 B2- Be|a2 ec|a2 ed|ce Bd|cA ce:|
[2 B2- BB|ce df|ec BA|ce Bd|cA A2||

